_includes/telegram.svg

<?xml version="1.0" encoding="UTF-8"?>
<svg xmlns="http://www.w3.org/2000/svg" xmlns:xlink="http://www.w3.org/1999/xlink" width="40pt" height="40pt" viewBox="0 0 40 40" version="1.1">
<g id="surface1">
<path style="fill:none;stroke-width:2;stroke-linecap:butt;stroke-linejoin:miter;stroke:rgb(0%,0%,0%);stroke-opacity:1;stroke-miterlimit:10;" d="M 43.359375 7.241211 C 42.080078 7.758789 5.629883 23.388672 5.629883 23.388672 C 5.629883 23.388672 3.867188 24.003906 4.008789 25.136719 C 4.145508 26.274414 5.59082 26.791992 5.59082 26.791992 L 14.970703 30 C 14.970703 30 17.802734 39.453125 18.359375 41.245117 C 18.916016 43.041992 19.365234 43.081055 19.365234 43.081055 C 19.87793 43.310547 20.356445 42.944336 20.356445 42.944336 L 26.416016 37.319336 L 35.859375 44.6875 C 38.417969 45.825195 39.345703 43.461914 39.345703 43.461914 L 45.854492 9.536133 C 46.430664 6.914062 44.716797 6.699219 43.359375 7.241211 Z M 43.359375 7.241211 " transform="matrix(0.8,0,0,0.8,0,0)"/>
<path style="fill:none;stroke-width:2;stroke-linecap:round;stroke-linejoin:round;stroke:rgb(0%,0%,0%);stroke-opacity:1;stroke-miterlimit:10;" d="M 15 30 L 38.999023 13.999023 L 22.001953 33.999023 " transform="matrix(0.8,0,0,0.8,0,0)"/>
<path style="fill:none;stroke-width:2;stroke-linecap:round;stroke-linejoin:round;stroke:rgb(0%,0%,0%);stroke-opacity:1;stroke-miterlimit:10;" d="M 20 42.998047 L 22.001953 33.999023 L 26.000977 37.001953 " transform="matrix(0.8,0,0,0.8,0,0)"/>
</g>
</svg>

<svg fill="#000000" xmlns="http://www.w3.org/2000/svg"  viewBox="0 0 50 50" width="100px" height="100px"><path fill="none" stroke="#000000" stroke-miterlimit="10" stroke-width="2" d="M43.361,7.242	C42.077,7.758,5.633,23.389,5.633,23.389s-1.765,0.614-1.625,1.748s1.58,1.653,1.58,1.653l9.38,3.212c0,0,2.832,9.448,3.39,11.241	c0.558,1.796,1.004,1.838,1.004,1.838c0.518,0.23,0.992-0.137,0.992-0.137l6.061-5.622l9.448,7.369	c2.554,1.134,3.483-1.228,3.483-1.228l6.509-33.925C46.431,6.913,44.717,6.699,43.361,7.242z"/><polyline fill="none" stroke="#000000" stroke-linecap="round" stroke-linejoin="round" stroke-miterlimit="10" stroke-width="2" points="15,30 39,14 22,34"/><polyline fill="none" stroke="#000000" stroke-linecap="round" stroke-linejoin="round" stroke-miterlimit="10" stroke-width="2" points="20,43 22,34 26,37"/></svg>
